src/assets/icons/remotes/internetarchive.svg

<svg width="24" height="24" viewBox="0 0 24 24" fill="currentColor" xmlns="http://www.w3.org/2000/svg">
    <path
        d="M3 21.0909H21V22H3V21.0909ZM3.72 19.3737H20.3314V20.6364H3.72V19.3737ZM3.61714 5.0303H20.1257V6.79798H3.61714V5.0303ZM20.0229 4.52525L20.5371 3.9697L11.8457 2L3.20571 3.9697L3.72 4.52525H11.8457H20.0229ZM5.98286 12.303L5.93143 9.72727L5.77714 7.35354C5.77714 7.25253 5.77714 7.25253 5.67429 7.25253C5.19964 7.15293 4.70893 7.15293 4.23429 7.25253C4.18286 7.25253 4.13143 7.25253 4.13143 7.35354L4.02857 9.72727C3.96637 11.8649 3.96637 14.0038 4.02857 16.1414L4.13143 18.3131L4.18286 18.7172L4.95429 18.8687C5.26286 18.8182 5.52 18.8182 5.77714 18.7172L5.82857 18.3131L5.93143 16.1414C5.97921 14.8625 5.99636 13.5827 5.98286 12.303ZM10.5086 12.303L10.4057 9.72727L10.3029 7.35354C10.3029 7.25253 10.2514 7.25253 10.2 7.25253C9.72536 7.15293 9.23464 7.15293 8.76 7.25253C8.65714 7.25253 8.65714 7.25253 8.65714 7.35354L8.50286 9.72727C8.44065 11.8649 8.44065 14.0038 8.50286 16.1414L8.60571 18.3131L8.65714 18.7172C8.91429 18.8182 9.22286 18.8182 9.48 18.8687L10.3029 18.7172V18.3131L10.4057 16.1414C10.4706 14.8629 10.5049 13.5831 10.5086 12.303ZM15.7029 12.303L15.6514 9.72727L15.4971 7.35354C15.4971 7.25253 15.4971 7.25253 15.3943 7.25253C14.9196 7.15293 14.4289 7.15293 13.9543 7.25253C13.9029 7.25253 13.8514 7.25253 13.8514 7.35354L13.7486 9.72727C13.6864 11.8649 13.6864 14.0038 13.7486 16.1414L13.8514 18.3131L13.9029 18.7172L14.6743 18.8687C14.9314 18.8182 15.24 18.8182 15.4971 18.7172L15.5486 18.3131L15.6514 16.1414C15.6991 14.8625 15.7162 13.5827 15.7029 12.303ZM20.0743 12.303L20.0229 9.72727L19.92 7.35354C19.92 7.25253 19.8686 7.25253 19.8171 7.25253C19.326 7.1456 18.8169 7.1456 18.3257 7.25253L18.2743 7.35354L18.12 9.72727C18.0579 11.8649 18.0579 14.0038 18.12 16.1414L18.2229 18.3131L18.2743 18.7172C18.5314 18.8182 18.7886 18.8182 19.0971 18.8687L19.8686 18.7172L19.92 18.3131L20.0229 16.1414C20.0706 14.8625 20.0877 13.5827 20.0743 12.303Z" />
</svg>

<svg xmlns="http://www.w3.org/2000/svg" width="24" height="24" fill="currentColor" viewBox="0 0 24 24"><path d="M3 21.09h18V22H3zm.72-1.716h16.611v1.262H3.72zM3.617 5.03h16.509v1.768H3.617zm16.406-.505.514-.555L11.846 2l-8.64 1.97.514.555zm-14.04 7.778L5.93 9.727l-.154-2.373c0-.101 0-.101-.103-.101-.474-.1-.965-.1-1.44 0-.051 0-.103 0-.103.1l-.1 2.375a110 110 0 0 0 0 6.414l.102 2.172.052.404.771.152c.309-.05.566-.05.823-.152l.052-.404.102-2.172q.072-1.917.052-3.838m4.526 0-.103-2.576-.103-2.373c0-.101-.052-.101-.103-.101-.475-.1-.965-.1-1.44 0-.103 0-.103 0-.103.1l-.154 2.374a110 110 0 0 0 0 6.414l.103 2.172.051.404c.257.101.566.101.823.152l.823-.152v-.404l.103-2.172q.097-1.917.103-3.838m5.194 0-.052-2.576-.154-2.373c0-.101 0-.101-.103-.101-.474-.1-.965-.1-1.44 0-.051 0-.103 0-.103.1l-.102 2.374a110 110 0 0 0 0 6.414l.102 2.172.052.404.771.152c.257-.05.566-.05.823-.152l.052-.404.102-2.172q.072-1.917.052-3.838m4.371 0-.051-2.576-.103-2.373c0-.101-.051-.101-.103-.101-.491-.107-1-.107-1.491 0l-.052.1-.154 2.374a110 110 0 0 0 0 6.414l.103 2.172.051.404c.257.101.515.101.823.152l.772-.152.051-.404.103-2.172q.072-1.917.051-3.838"/></svg>
